X: 22026
T: Klermañ
R: jig
M: 6/8
K: Gminor
dBc GBF|~G3 FGB|dBc GBF|ede d2c|
dBc GBF|~G3 FGA|B2d Bdc|~B3 ~B3|
dBc GBF|~G3 FGB|dBc GBF|ede d3|
dBc GBF|~G3 FGA|B2d Bdc|~B3 BGF|
|:~B3 d2f|gbg fdc|~B3 d2f|gfg bag|
~f3 d2 f|b2g gfd|dcB GFG|ede d3:|

